X:3047
T:Timour the Tatar (Blanchland races)
O:ireland
R:Reel
M:4/4
A:Northumbria
K:A
A2 (3cBA eA (3cBA|eA aA gA fA|\
eA (3cBA eA (3cBA|BE dE cE BE|
A2 (3cBA eA (3cBA|eA aA gA fA|\
ef ec ea ec|BA Bc A4 ::
E2 (3GFE BE (3GFE|BE dE cE BE|\
A2 (3cBA eA (3cBA| eA aA gA fA|
ef ec ea ga|ef ec ea ga\
|1 ec ag fe dc|BA GF EF GE :|2\
e2 (3efg a2c2| BA Bc A4|]
